X:8
T:Black Alman
C:R.C.M Ms. 1119
N:Arr. Dave Lankford; matches Pile 2018.
M:6/4
L:1/8
K:D minor
D2 |:\
P:A
"Dm"D3EF2 "Gm"G3AG2 | "F"F3EF2 "Gm"G4A2 | B3AG2 "Bb"B3cd2 |  [1 "D"A6- A4D2 :|]  [2 "D"A6- A4d2 ::
P:B
"F"c3BA2 "Gm"B3cd2 | "Dm"A2A2A2 A4d2 | "F"c3BA2 "Gm"B3cd2 | [1 "D"A6- A4d2 :|]  [2 "D"A12 ::
P:C
"Dm"d4e2 f3ed2 | "Am"c3Bc2 "Dm"d4A2 | "Dm"d2a2g2 "D"^f3ed2 | "A"^c3=Bc2 "D"d6 ::
P:D
"Dm"d4e2 f3ed2 | "F"c2d2B2 A4G2 | "Bb"B2A2G2 B2A2G2 |  [1 "C"c2A4 "G"G6 :|]  [2 "C"c2A4 "G"G4A2 :|
P:E
"Bb"B2A2G2 B2A2G2 | "C"c2A4 "Gm"G4A2 | "Bb"B2A2G2 B2A2G2 | "C"c2A4 "G"G4 |]

